src/assets/icons/github.svg

<svg width="20" height="21" viewBox="0 0 20 21" fill="none" xmlns="http://www.w3.org/2000/svg">
<g clip-path="url(#clip0_126_314)">
<path d="M7.50002 16.3959C3.33335 17.6459 3.33335 14.3125 1.66669 13.8959M13.3334 18.8959V15.6709C13.3646 15.2735 13.3109 14.874 13.1759 14.499C13.0408 14.124 12.8275 13.782 12.55 13.4959C15.1667 13.2042 17.9167 12.2125 17.9167 7.66253C17.9165 6.49905 17.4689 5.3802 16.6667 4.53753C17.0466 3.51962 17.0197 2.39449 16.5917 1.39586C16.5917 1.39586 15.6084 1.1042 13.3334 2.6292C11.4234 2.11155 9.41001 2.11155 7.50002 2.6292C5.22502 1.1042 4.24169 1.39586 4.24169 1.39586C3.81367 2.39449 3.78681 3.51962 4.16669 4.53753C3.35846 5.38645 2.91046 6.51542 2.91669 7.68753C2.91669 12.2042 5.66669 13.1959 8.28335 13.5209C8.00918 13.8042 7.79774 14.142 7.66278 14.5125C7.52782 14.8829 7.47236 15.2776 7.50002 15.6709V18.8959" stroke="#0A192F" stroke-width="1.66667" stroke-linecap="round" stroke-linejoin="round"/>
</g>
<defs>
<clipPath id="clip0_126_314">
<rect width="20" height="20" fill="white" transform="translate(0 0.5625)"/>
</clipPath>
</defs>
</svg>

<svg xmlns="http://www.w3.org/2000/svg" width="20" height="21" fill="none"><g clip-path="url(#a)"><path stroke="#0A192F" stroke-linecap="round" stroke-linejoin="round" stroke-width="1.667" d="M7.5 16.396c-4.167 1.25-4.167-2.084-5.833-2.5m11.666 5V15.67a2.81 2.81 0 0 0-.783-2.175c2.617-.292 5.367-1.284 5.367-5.833a4.533 4.533 0 0 0-1.25-3.125 4.225 4.225 0 0 0-.075-3.142s-.984-.292-3.259 1.233a11.15 11.15 0 0 0-5.833 0C5.225 1.104 4.242 1.396 4.242 1.396a4.225 4.225 0 0 0-.075 3.142 4.533 4.533 0 0 0-1.25 3.15c0 4.516 2.75 5.508 5.366 5.833a2.808 2.808 0 0 0-.783 2.15v3.225"/></g><defs><clipPath id="a"><path fill="#fff" d="M0 .563h20v20H0z"/></clipPath></defs></svg>
